X:78
T:Morris simple chords 25
M:3/4
L:1/8
K:G
d2 [BG,B,D]d dg | gd dg [gC,E,G,]e | dc B2 G2 | d2 [BG,B,DG,B,D]d dg | gd dg [gC,E,G,]e |
dc B2 G2 | [cC,E,G,]d (3edc Bd | d2 [cC,E,G,]d (3edc | B2 G2 [cC,E,G,]d |
(3edc Bd d2 | [eC,E,G,]g fa g2 |


